static/card-icons/checkbox.svg

<svg viewBox="0 0 512 512" xmlns="http://www.w3.org/2000/svg"><path d="m437.019 74.98c-48.352-48.351-112.639-74.98-181.019-74.98-68.381 0-132.669 26.629-181.02 74.98-48.352 48.352-74.98 112.64-74.98 181.02s26.628 132.667 74.98 181.019 112.639 74.981 181.02 74.981c68.38 0 132.667-26.629 181.019-74.981s74.981-112.639 74.981-181.019-26.629-132.667-74.981-181.02zm-181.019 407.02c-124.617 0-226-101.383-226-226s101.383-226 226-226 226 101.383 226 226-101.383 226-226 226z"/><path d="m378.305 173.859c-5.857-5.856-15.355-5.856-21.212.001l-132.459 132.459-69.727-69.727c-5.857-5.857-15.355-5.857-21.213 0s-5.858 15.355 0 21.213l80.333 80.333c2.929 2.929 6.768 4.393 10.606 4.393s7.678-1.465 10.606-4.393l143.066-143.066c5.858-5.857 5.858-15.355 0-21.213z"/></svg>

<?xml version="1.0" encoding="iso-8859-1"?>
<!-- Generator: Adobe Illustrator 19.0.0, SVG Export Plug-In . SVG Version: 6.00 Build 0)  -->
<svg version="1.1" id="Capa_1" xmlns="http://www.w3.org/2000/svg" xmlns:xlink="http://www.w3.org/1999/xlink" x="0px" y="0px"
	 viewBox="0 0 512 512" style="enableBackground:new 0 0 512 512;" xml:space="preserve">
<g>
	<g>
		<path d="M437.019,74.98C388.667,26.629,324.38,0,256,0C187.619,0,123.331,26.629,74.98,74.98C26.628,123.332,0,187.62,0,256
			s26.628,132.667,74.98,181.019C123.332,485.371,187.619,512,256,512c68.38,0,132.667-26.629,181.019-74.981
			C485.371,388.667,512,324.38,512,256S485.371,123.333,437.019,74.98z M256,482C131.383,482,30,380.617,30,256S131.383,30,256,30
			s226,101.383,226,226S380.617,482,256,482z"/>
	</g>
</g>
<g>
	<g>
		<path d="M378.305,173.859c-5.857-5.856-15.355-5.856-21.212,0.001L224.634,306.319l-69.727-69.727
			c-5.857-5.857-15.355-5.857-21.213,0c-5.858,5.857-5.858,15.355,0,21.213l80.333,80.333c2.929,2.929,6.768,4.393,10.606,4.393
			c3.838,0,7.678-1.465,10.606-4.393l143.066-143.066C384.163,189.215,384.163,179.717,378.305,173.859z"/>
	</g>
</g>
<g>
</g>
<g>
</g>
<g>
</g>
<g>
</g>
<g>
</g>
<g>
</g>
<g>
</g>
<g>
</g>
<g>
</g>
<g>
</g>
<g>
</g>
<g>
</g>
<g>
</g>
<g>
</g>
<g>
</g>
</svg>
